X: 8246
T: Corcomroe
R: reel
M: 4/4
K: Eminor
f2Jg6-|g3f2{f}ed2-|dJg4B/d/B2-|B8-|B3-B2{d}BAA-|A8-|A2z3AB2|JB8-|
B3-!>!B2A~A2|{d}AG4-G3-|G2z3JB2d|Je8-|e3-e2z3|z4fg2{a}g|f2{a}fe2{f}ed2|
Je2B/d/B2{d}BA2-|A8-|A3Jc4{d}B|(3GAB A4z2|zJG2{A}GF2{A}FE-|E2{A}ED3-D2-|D8-|D8|
z3fJg2{a}gJf-|f2{a}f2{a}feed|fJg3dB3|{c}B A/B/A6-|A8-|A2z3BJc2-|c3B/c/B/c/ B3|
{c}B A/B/AFJG4-|G6z2|GABde4-|e8-|e2z6|z2fJg{a}gf2{a}f|e3deB{c}BA-|A8|
Bc (3BAB (3GAB A2-|A3z3F2|JG8|{A}!>!G6z2|zJG (3AGF E4-|E8-|E4z4|
z6Je2-|!>!e8-|^d4-=deg2|B/c/B4-B3-|B6B{c}B|ABf2Jg4-|g8-|g2z2Jf4-|{a}ff3{a}fe3-|!>!e8|
z2{c}BABcFE/F/|E8-|!>!E6z2|z4z3Je-|e4^def2|Ja8-|a3z{a}f2Jg2-|g3zJf2{a}f2-|!>!f4-e4|
e3{a}edefa-|ag2af (3gag f|g8|dJeJf2{a}fedd|e/d/BcBAJB3-|B8|z2z3A{c}AG|
FJG3zeJg2-|!>!g2-e6|e8-|e2z6|z3fJg3{a}g|f2{ef}edJg2B2-|B2{c}BA3-A2-|A3-A2z3|
zBcAJB4-|B2{c}BA/B/AG3-|G8-|G4{A}GFGA|{Bc}B2de3-e2-|e8-|
>!ez4{a}f2J{a}g-|g{a}gfJg{a}g2f{a}f|e2f/e/de (3B/c/B/ A2-|!>!A4z3B|
Jc (3B/c/B/ ABG {AB} A3-|A4{c}AGF G/F/|E6D2-|D6ED|E8-|
E3z3z2|z{a}dJe3^def-|fB/c/B6-|!>!B8|z3{a}f2Jg3-|!>!g4-f2Jf2-|
f{a}fedJe4-|e2z2 (3B/c/B/ AB2|Jc2FA/B/A4-|A8-|!>!A2z6|{a}Je6-d2-|
def2Ja2{c'}ag/a/|g8-|gG3zef2-|{a}ef4Je3-|e3{a}edeJf2-|fg{a}g3-g2{a}f-|
f2{a}fe3-e2-|e2z3z2d|ee!>!Jf4-ec-|c{e}c^dfc/{e}c/AJ^A2-|^A8-|
^A3z3A{A}F|AFJG2AF3-|F2z3A{A}G2-|G6{A}G2-|G{A}G2{A}G2{A}G2{A}G-|
(3GFEJ G A/G/F/E/ JG A/G/F/E/|JGAG{A}GFE3-|E8-|E2z6|

